assets/svg/522-C.svg

<svg xmlns="http://www.w3.org/2000/svg" xmlns:xlink="http://www.w3.org/1999/xlink" width="24.69" height="24.69"><defs><path id="a" d="M0 0h24.7v24.7H0z"/></defs><clipPath id="b"><use xlink:href="#a" overflow="visible"/></clipPath><path fill="none" stroke="#00AEEF" stroke-width=".4" d="M16.35 7.96a9.61 9.61 0 0 1-5.93.67M7.06 2.85a6.9 6.9 0 0 0 4.25-.98M18 16.3c-.92.24-3.33.66-4.25.58m1.08-2.5c-.58.16-1.66.24-2.4.08m6.22-6.54c.75.16 1.83.08 2.4-.1m-9.72 9.06c-.75.08-3.4-.25-4.25-.92m2.42-3.83c.67.24 3.25.5 3.92.4m7.58-2.4c-1.25.5-4.08 1.4-5.17 1.4m-3.25-.83c.6.1 1.25-.16 1.92-.32m2.3 10.14c-.65.17-1.32.42-1.9.33m1.43-2.05c.84 0 3.72-.33 5.25-.84M13.67 6.13c1.08 0 3.16-1.1 4.5-1.67m-9.84 1.5a9.1 9.1 0 0 0 3.17-.5m-1.08 13.67c.75.16 1.83.25 2.66.16m4-5.09c1.68 0 3.17-.07 4.6-.57m-4.35 8.67c-.78.33-3.83.58-5.33.5m7-1.42c1.08 0 3.17-.5 3.75-.67M8.7 7.9c-.76-.1-2.26-.1-3.43-.42M22.42 23.2c-1.1.26-4 .34-4.42.26M1.17 3.1c.75.17 1.83.1 2.4-.08m.58-1.54a9.07 9.07 0 0 0 3.16-.5m7.71 2.52c-.83.08-1.92 0-2.67-.17m1.32-2.23c1.8.4 4.42-.1 4.98-.27m4.43 7.47c.53.1 1.08.17 1.6.18M21.25 2.3c1.6.06 2.55-.18 3.44-.58M20.4 15.67c.83.66 3.5 1 4.25.9m-2.48-4.77c.4.15 1.55.3 2.52.38m-4.94-6.55a18.1 18.1 0 0 0 4.42-.5M23.08 18.8c.46.1 1.04.16 1.6.2m-.43 2.46c.13 0 .28 0 .44.02m-.94 2.44c.2.05.53.1.94.14M4.27 7.62c-.9.5-2.53.9-4.27.87M.75 1.3c-.25.15-.5.28-.75.4m5.9 14.26c-.92.25-3.34.66-4.26.58m1.09-2.5c-.58.17-1.67.25-2.42.1m1.03-1.94c-.25.04-.76.02-1.34-.02m8.83-1.98c-1.06.86-4.02 1-5.1 1M2.4 10.04c-.67.17-1.34.42-1.92.34m2.5 8.7c.83 0 3.35.1 4.85-.5M6.15 4.65c-1.34.58-3.5 1.14-4.6 1.14M1 18.96C.7 19 .36 19 0 19m4.98-5.12c1.66-.17 2.5-.34 3.9-.6M5 21.38c-.75.14-3.4.16-5 .1m6.9-.44c1.08 0 3.16-.5 3.74-.66m-.34 2.5c-1.07.25-4 .33-4.4.25m-5.9.94c1.04.1 2.54.18 3.42.18" clip-path="url(#b)"/></svg>

<?xml version="1.0"?>
<svg xmlns="http://www.w3.org/2000/svg" xmlns:xlink="http://www.w3.org/1999/xlink" width="24.69" height="24.69">
  <defs>
    <path id="a" d="M0 0h24.7v24.7H0z"/>
  </defs>
  <clipPath id="b">
    <use xlink:href="#a" overflow="visible"/>
  </clipPath>
  <path fill="none" stroke="#00AEEF" stroke-width=".4" d="M16.35 7.96c-1.17.63-3.65 1.17-5.93.67M7.06 2.85c2.1.1 3.07-.34 4.25-.98M18 16.3c-.92.24-3.33.66-4.25.58M14.83 14.38c-.58.16-1.66.24-2.4.08M18.65 7.92c.75.16 1.83.08 2.4-.1M11.33 16.88c-.75.08-3.4-.25-4.25-.92M9.5 12.13c.67.24 3.25.5 3.92.4M21 10.13c-1.25.5-4.08 1.4-5.17 1.4M12.58 10.7c.6.1 1.25-.16 1.92-.32M16.8 20.52c-.65.17-1.32.42-1.9.33M16.33 18.8c.84 0 3.72-.33 5.25-.84M13.67 6.13c1.08 0 3.16-1.1 4.5-1.67M8.33 5.96c1.17.08 2.34-.25 3.17-.5M10.42 19.13c.75.16 1.83.25 2.66.16M17.08 14.2c1.68 0 3.17-.07 4.6-.57M17.33 22.3c-.78.33-3.83.58-5.33.5M19 21.38c1.08 0 3.17-.5 3.75-.67M8.7 7.9c-.76-.1-2.26-.1-3.43-.42M22.42 23.2c-1.1.26-4 .34-4.42.26M1.17 3.1c.75.17 1.83.1 2.4-.08M4.15 1.48c1.16.08 2.33-.25 3.16-.5M15.02 3.5c-.83.08-1.92 0-2.67-.17M13.67 1.1c1.8.4 4.42-.1 4.98-.27M23.08 8.3c.53.1 1.08.17 1.6.18M21.25 2.3c1.6.06 2.55-.18 3.44-.58M20.4 15.67c.83.66 3.5 1 4.25.9M22.17 11.8c.4.15 1.55.3 2.52.38M19.75 5.63c1.17.08 3.58-.25 4.42-.5M23.08 18.8c.46.1 1.04.16 1.6.2M24.25 21.46c.13 0 .28 0 .44.02M23.75 23.92c.2.05.53.1.94.14M4.27 7.62c-.9.5-2.53.9-4.27.87M.75 1.3c-.25.15-.5.28-.75.4M5.9 15.96c-.92.25-3.34.66-4.26.58M2.73 14.04c-.58.17-1.67.25-2.42.1M1.34 12.2c-.25.04-.76.02-1.34-.02M8.83 10.2c-1.06.86-4.02 1-5.1 1M2.4 10.04c-.67.17-1.34.42-1.92.34M2.98 19.08c.83 0 3.35.1 4.85-.5M6.15 4.65c-1.34.58-3.5 1.14-4.6 1.14M1 18.96C.7 19 .36 19 0 19M4.98 13.88c1.66-.17 2.5-.34 3.9-.6M5 21.38c-.75.14-3.4.16-5 .1M6.9 21.04c1.08 0 3.16-.5 3.74-.66M10.3 22.88c-1.07.25-4 .33-4.4.25M0 24.07c1.04.1 2.54.18 3.42.18" clip-path="url(#b)"/>
</svg>
